X: 1
T:Jenny Sutar's
R:Reel
O:England
M:C|
A:Westmorland
N:P10 1/2
K:A
AA/2A/2 Ac ecec|AA/2A/2 Ac dBGB|\
AA/2A/2 Ac ecec|dfdB c2A2::\
aAaA gAgA|fgaf ecBA|aAaA gAgA|fgaf f2e2|\
affa geeg| fddf ecBc|\
AA/2A/2 Ac ecec|dfeg a2A2:|
